assets/img/braze_icons/line-chart-up-03.svg

<svg fill="none" height="24" viewBox="0 0 24 24" width="24" xmlns="http://www.w3.org/2000/svg"><path d="m17.8385 22h-11.67704c-.52713 0-.98192 0-1.35649-.0306-.39534-.0323-.78856-.1036-1.16694-.2964-.56449-.2876-1.02343-.7465-1.31105-1.311-.10247-.2012-.17063-.4065-.21685-.6141-.02509-.1127-.03764-.1691-.0314-.2447.00494-.06.02775-.1384.05575-.1916.03532-.0672.08557-.1174.18607-.2179l5.67945-5.6795 1.74357 1.7436c.08419.0842.18476.1849.28063.2663.111.0942.2796.2198.5123.2954.3012.0979.6258.0979.927 0 .2327-.0756.4013-.2012.5123-.2954.0959-.0814.1964-.182.2806-.2663l3.7436-3.7436v1.5858c0 .5523.4477 1 1 1s1-.4477 1-1v-4c0-.55228-.4477-1-1-1h-4c-.5523 0-1 .44772-1 1 0 .55229.4477 1 1 1h1.5858l-3.5858 3.5858-1.74356-1.7436c-.0842-.0842-.18475-.1849-.28061-.2662-.11107-.0943-.27967-.2199-.5123-.2955-.30127-.0979-.62579-.0979-.92705 0-.23264.0756-.40124.2012-.51231.2955-.09582.0813-.19636.1819-.28054.2661l-3.37794 3.378c-.42838.4284-.64257.6426-.82646.657-.15956.0126-.31549-.052-.41943-.1737-.1198-.1403-.1198-.4432-.1198-1.049v-8.49294c-.00002-.52714-.00003-.98192.03057-1.35649.0323-.39534.10362-.78856.29641-1.16694.28762-.56449.74656-1.02343 1.31105-1.31105.37838-.19279.7716-.26411 1.16694-.29641.37457-.0306.82933-.03059 1.35647-.03057h11.67716c.5271-.00002.9819-.00003 1.3564.03057.3954.0323.7886.10362 1.167.29641.5645.28762 1.0234.74656 1.311 1.31105.1928.37838.2641.7716.2964 1.16694.0306.37457.0306.82932.0306 1.35646v11.67717c0 .5271 0 .9819-.0306 1.3564-.0323.3954-.1036.7886-.2964 1.167-.2876.5645-.7465 1.0234-1.311 1.311-.3784.1928-.7716.2641-1.167.2964-.3745.0306-.8293.0306-1.3565.0306z" fill="#801ed7"/></svg>

<svg width="24" height="24" viewBox="0 0 24 24" fill="none" xmlns="http://www.w3.org/2000/svg">
<path d="M17.8385 22H6.16146C5.63433 22 5.17954 22 4.80497 21.9694C4.40963 21.9371 4.01641 21.8658 3.63803 21.673C3.07354 21.3854 2.6146 20.9265 2.32698 20.362C2.22451 20.1608 2.15635 19.9555 2.11013 19.7479C2.08504 19.6352 2.07249 19.5788 2.07873 19.5032C2.08367 19.4432 2.10648 19.3648 2.13448 19.3116C2.1698 19.2444 2.22005 19.1942 2.32055 19.0937L8 13.4142L9.74357 15.1578C9.82776 15.242 9.92833 15.3427 10.0242 15.4241C10.1352 15.5183 10.3038 15.6439 10.5365 15.7195C10.8377 15.8174 11.1623 15.8174 11.4635 15.7195C11.6962 15.6439 11.8648 15.5183 11.9758 15.4241C12.0717 15.3427 12.1722 15.2421 12.2564 15.1578L16 11.4142V13C16 13.5523 16.4477 14 17 14C17.5523 14 18 13.5523 18 13V9C18 8.44772 17.5523 8 17 8H13C12.4477 8 12 8.44772 12 9C12 9.55229 12.4477 10 13 10H14.5858L11 13.5858L9.25644 11.8422C9.17224 11.758 9.07169 11.6573 8.97583 11.576C8.86476 11.4817 8.69616 11.3561 8.46353 11.2805C8.16226 11.1826 7.83774 11.1826 7.53648 11.2805C7.30384 11.3561 7.13524 11.4817 7.02417 11.576C6.92835 11.6573 6.82781 11.7579 6.74363 11.8421L3.36569 15.2201C2.93731 15.6485 2.72312 15.8627 2.53923 15.8771C2.37967 15.8897 2.22374 15.8251 2.1198 15.7034C2 15.5631 2 15.2602 2 14.6544V6.16146C1.99998 5.63432 1.99997 5.17954 2.03057 4.80497C2.06287 4.40963 2.13419 4.01641 2.32698 3.63803C2.6146 3.07354 3.07354 2.6146 3.63803 2.32698C4.01641 2.13419 4.40963 2.06287 4.80497 2.03057C5.17954 1.99997 5.6343 1.99998 6.16144 2H17.8386C18.3657 1.99998 18.8205 1.99997 19.195 2.03057C19.5904 2.06287 19.9836 2.13419 20.362 2.32698C20.9265 2.6146 21.3854 3.07354 21.673 3.63803C21.8658 4.01641 21.9371 4.40963 21.9694 4.80497C22 5.17954 22 5.63429 22 6.16143V17.8386C22 18.3657 22 18.8205 21.9694 19.195C21.9371 19.5904 21.8658 19.9836 21.673 20.362C21.3854 20.9265 20.9265 21.3854 20.362 21.673C19.9836 21.8658 19.5904 21.9371 19.195 21.9694C18.8205 22 18.3657 22 17.8385 22Z" fill="#801ED7"/>
</svg>
